X:1
T:Tatter Jack Welsh
T:Tatter Jack Walsh
N:from the lilting of Sally Sloane
Z:Ian Hayden 2017
L:1/8
M:6/8
K:G
a|ged ded|cAB c2A|dcA GFG|Add efg|
|afd ded|cAB c2A|dcA GFG|Add d3|]
|dfa afd|dfa a3|gfg gag|fef g3|
|dfa afd|dfa a3|gfg gag|fef g2g|
|afd ded|cAB c2A|dcA GFG|Add d3|]
